public/icons/tools/html.svg

<svg width="64" height="64" viewBox="0 0 64 64" fill="none" xmlns="http://www.w3.org/2000/svg">
<path d="M32.0002 46.8267L42.8535 43.8133L44.3202 27.5467H25.0135L24.5335 22.1333H44.8002L45.3335 16.8267H18.6668L20.1602 32.8533H38.5335L37.9202 39.7333L32.0002 41.3333L26.0802 39.7333L25.7069 35.3067H20.3735L21.1468 43.8133L32.0002 46.8267ZM10.8535 8H53.1469L49.3335 51.2L32.0002 56L14.6668 51.2L10.8535 8Z" fill="black"/>
</svg>

<svg width="64" height="64" fill="none" xmlns="http://www.w3.org/2000/svg"><path d="M32 46.827l10.853-3.014 1.467-16.266H25.014l-.48-5.414H44.8l.534-5.306H18.666l1.493 16.026h18.373l-.613 6.88-5.92 1.6-5.92-1.6-.373-4.426h-5.334l.774 8.506L32 46.827zM10.854 8h42.293l-3.813 43.2L32 56l-17.333-4.8L10.854 8z" fill="#000"/></svg>
